media/img/firefox/lockwise/fingerprinters.svg

<?xml version="1.0" encoding="UTF-8"?>
<svg width="37px" height="39px" viewBox="0 0 37 39" version="1.1" xmlns="http://www.w3.org/2000/svg" xmlns:xlink="http://www.w3.org/1999/xlink">
    <!-- Generator: Sketch 56.2 (81672) - https://sketch.com -->
    <title>Fingerprinters </title>
    <desc>Created with Sketch.</desc>
    <g id="Page-1" stroke="none" stroke-width="1" fill="none" fill-rule="evenodd">
        <g id="/lockwise-1440" transform="translate(-692.000000, -820.000000)" fill="#4983F4" fill-rule="nonzero">
            <g id="Group-3" transform="translate(0.000000, 743.000000)">
                <g id="Fingerprinters-" transform="translate(692.000000, 77.000000)">
                    <path d="M18.5,0 C8.44841755,0 0.3,8.14841755 0.3,18.2 C0.3,19.6359403 1.46405965,20.8 2.9,20.8 C4.33594035,20.8 5.5,19.6359403 5.5,18.2 C5.5,11.0202983 11.3202983,5.2 18.5,5.2 C25.6797017,5.2 31.5,11.0202983 31.5,18.2 C31.5461341,22.1103291 30.5211005,25.9587007 28.536,29.328 C27.20845,31.4600836 26.4394507,33.8922674 26.3,36.4 C26.3,37.8359403 27.4640597,39 28.9,39 C30.3359403,39 31.5,37.8359403 31.5,36.4 C31.6555527,34.7376982 32.21812,33.1392928 33.138,31.746 C35.5201932,27.6324494 36.7506107,22.9532706 36.7,18.2 C36.7,8.14841755 28.5515824,0 18.5,0 Z" id="Path"></path>
                    <path d="M18.5,7.8 C12.7562386,7.8 8.1,12.4562386 8.1,18.2 C8.1,19.5791257 7.55214443,20.9017661 6.57695526,21.8769553 C5.60176609,22.8521444 4.27912575,23.4 2.9,23.4 C1.46405965,23.4 0.3,24.5640597 0.3,26 C0.3,27.4359403 1.46405965,28.6 2.9,28.6 C8.6437614,28.6 13.3,23.9437614 13.3,18.2 C13.3,15.3281193 15.6281193,13 18.5,13 C21.3718807,13 23.7,15.3281193 23.7,18.2 C23.8485195,22.7862732 22.2288833,27.2542353 19.176,30.68 C18.0369108,32.0981336 17.0357087,33.621702 16.186,35.23 C15.5439968,36.5082992 16.0551862,38.0651034 17.33,38.714 C17.6896332,38.9064951 18.0921194,39.0048806 18.5,39.0001731 C19.4790513,38.9970326 20.3734294,38.4443271 20.814,37.57 C21.5663582,36.2463802 22.4365491,34.9933054 23.414,33.826 C27.1208733,29.480008 29.0766073,23.9094103 28.9,18.2 C28.9,12.4562386 24.2437614,7.8 18.5,7.8 L18.5,7.8 Z" id="Path"></path>
                    <path d="M18.5,15.6 C17.0640597,15.6 15.9,16.7640597 15.9,18.2 C15.9,29.146 2.224,33.8 2.068,33.93 C1.41188317,34.1492194 0.870178504,34.6208719 0.562762718,35.2405831 C0.255346932,35.8602943 0.207568296,36.5769652 0.43,37.232 C0.787687506,38.2910105 1.78221863,39.0028854 2.9,39 C3.17618797,39.0356453 3.45581203,39.0356453 3.732,39 C4.434,38.636 21.1,32.916 21.1,18.2 C21.1,16.7640597 19.9359403,15.6 18.5,15.6 Z" id="Path"></path>
                </g>
            </g>
        </g>
    </g>
</svg>

<svg width="37" height="39" xmlns="http://www.w3.org/2000/svg"><g fill="#4983F4" fill-rule="nonzero"><path d="M18.5 0C8.448 0 .3 8.148.3 18.2a2.6 2.6 0 005.2 0c0-7.18 5.82-13 13-13s13 5.82 13 13a21.424 21.424 0 01-2.964 11.128A14.95 14.95 0 0026.3 36.4a2.6 2.6 0 005.2 0c.156-1.662.718-3.26 1.638-4.654A26.468 26.468 0 0036.7 18.2C36.7 8.148 28.552 0 18.5 0z"/><path d="M18.5 7.8c-5.744 0-10.4 4.656-10.4 10.4a5.2 5.2 0 01-5.2 5.2 2.6 2.6 0 000 5.2c5.744 0 10.4-4.656 10.4-10.4a5.2 5.2 0 1110.4 0 17.888 17.888 0 01-4.524 12.48 28.6 28.6 0 00-2.99 4.55 2.6 2.6 0 001.144 3.484c.36.192.762.29 1.17.286a2.6 2.6 0 002.314-1.43 25.324 25.324 0 012.6-3.744A22.984 22.984 0 0028.9 18.2c0-5.744-4.656-10.4-10.4-10.4z"/><path d="M18.5 15.6a2.6 2.6 0 00-2.6 2.6c0 10.946-13.676 15.6-13.832 15.73A2.6 2.6 0 00.43 37.232 2.6 2.6 0 002.9 39c.276.036.556.036.832 0 .702-.364 17.368-6.084 17.368-20.8a2.6 2.6 0 00-2.6-2.6z"/></g></svg>
